X: 1
T:Messenger 
C:Shaker Community at Mt. Leganon, N Y
M:4/4
L:1/8
Q:1/4=80
K:D
V:1 clef=treble
|:[DF][EG]|"D"[F2A2] [FA][FA] [F2A2] [DF][FA]|
w: Go forth with the torch lights, il-
V:2 clef=bass
|:[d2a2]  |   [d2a2] [da][da] [d2a2] [da][da]|
V:1
"G"[G2B2] [GB][GB] [F3A3] [E/2G/2]|"D"[D2F2] [DF][DF] [DF][FA][EG][DF]|
w:lu- mine the caves, The earth- ly con- di- * tions that
V:2
   [d2d'2] [dd'][dd'] [d3d'3] [Aa]| [A2a2] [Aa][Aa] [A2a2] [Aa][Aa]|
V:1
"A"[DF][CE] [C3/2E3/2][C/2E/2] [C2E2] [DF][EG]|
w:  cov- -   er        the      soul.  For- -      
V:2
   [A2a2] [A3/2a3/2][A/2a/2] [A2a2] [D2d2]|

